Numix/32/mimetypes/virtualbox-vmdk.svg

<?xml version="1.0" encoding="UTF-8" standalone="no"?>
<svg
   xmlns:dc="http://purl.org/dc/elements/1.1/"
   xmlns:cc="http://creativecommons.org/ns#"
   xmlns:rdf="http://www.w3.org/1999/02/22-rdf-syntax-ns#"
   xmlns:svg="http://www.w3.org/2000/svg"
   xmlns="http://www.w3.org/2000/svg"
   xmlns:sodipodi="http://sodipodi.sourceforge.net/DTD/sodipodi-0.dtd"
   xmlns:inkscape="http://www.inkscape.org/namespaces/inkscape"
   width="32"
   height="32"
   viewBox="0 0 32 32"
   id="svg2"
   version="1.1"
   inkscape:version="0.91 r13725"
   sodipodi:docname="application-vbox-7_32-3P-.svg">
  <metadata
     id="metadata26">
    <rdf:RDF>
      <cc:Work
         rdf:about="">
        <dc:format>image/svg+xml</dc:format>
        <dc:type
           rdf:resource="http://purl.org/dc/dcmitype/StillImage" />
        <dc:title></dc:title>
      </cc:Work>
    </rdf:RDF>
  </metadata>
  <defs
     id="defs24" />
  <sodipodi:namedview
     pagecolor="#ffffff"
     bordercolor="#666666"
     borderopacity="1"
     objecttolerance="10"
     gridtolerance="10"
     guidetolerance="10"
     inkscape:pageopacity="0"
     inkscape:pageshadow="2"
     inkscape:window-width="1920"
     inkscape:window-height="1013"
     id="namedview22"
     showgrid="false"
     inkscape:zoom="1"
     inkscape:cx="10.968701"
     inkscape:cy="3.3862862"
     inkscape:window-x="0"
     inkscape:window-y="27"
     inkscape:window-maximized="1"
     inkscape:current-layer="svg2">
    <inkscape:grid
       type="xygrid"
       id="grid3100" />
  </sodipodi:namedview>
  <path
     style="fill:#f05617;fill-opacity:1"
     d="M 5.335888,2.97e-4 C 4.648414,3.12e-4 4,0.676788 4,1.394031 L 4,30.606268 C 4,31.282757 4.687474,32 5.335888,32 l 21.327331,0 c 0.648414,0 1.335888,-0.717243 1.335888,-1.393732 L 28,8.9999995 19,0 z"
     id="path4-1"
     inkscape:connector-curvature="0"
     sodipodi:nodetypes="ssssssccs" />
  <path
     style="fill:#000000;fill-opacity:0.19599998"
     d="m 20.999999,8.9999995 7,7.0000005 0,-7.0000005 z"
     id="path6-4"
     inkscape:connector-curvature="0"
     sodipodi:nodetypes="cccc" />
  <path
     style="fill:#ffffff;fill-opacity:0.39200003"
     d="m 19.000305,2.97e-4 8.991594,8.9997025 -7.613262,0 c -0.672951,0 -1.378332,-0.7134896 -1.378332,-1.3864402 z"
     id="path8-6"
     inkscape:connector-curvature="0"
     sodipodi:nodetypes="ccssc" />
  <path
     style="fill:#000000;fill-opacity:0.19599998"
     d="m 4,24 0,6.667969 C 4,31.316407 4.6875,32 5.3320311,32 L 26.667969,32 C 27.3125,32 28,31.316407 28,30.667969 L 28,24 z"
     id="path3011"
     inkscape:connector-curvature="0" />
  <path
     style="fill:#ffffff;fill-opacity:1;fill-rule:nonzero;stroke:none"
     d="m 15.5,9.158 -2,8.579364 L 12.27595,14 10,14 l 0,1 1.644,0 1.956818,5.993934 0.228656,0.0061 1.979976,-8.588287 1.578291,5.193171 c 0.421804,-1.60731 0.84982,-3.215011 1.274023,-4.822322 0.93781,2.165269 -0.01791,0.04248 0.938499,2.217404 L 22,15 22,14 20.260891,14 18.660568,9 c -0.424205,1.595812 -0.851036,3.190921 -1.275239,4.784313 z"
     id="path55"
     inkscape:connector-curvature="0"
     sodipodi:nodetypes="cccccccccccccccccc" />
  <path
     inkscape:connector-curvature="0"
     id="path4141"
     style="font-style:normal;font-variant:normal;font-weight:bold;font-stretch:normal;font-size:9.0232296px;line-height:125%;font-family:'Ubuntu Mono';-inkscape-font-specification:'Ubuntu Mono, Bold';text-align:start;letter-spacing:0px;word-spacing:0px;writing-mode:lr-tb;text-anchor:start;fill:#ffffff;fill-opacity:1;stroke:none;stroke-width:1px;stroke-linecap:butt;stroke-linejoin:miter;stroke-opacity:1"
     d="M 7.6389474,31 Q 7.411579,30.331179 7.1557895,29.487883 6.9,28.644588 6.6726316,27.810986 6.4452632,26.96769 6.2652632,26.221325 6.0852631,25.474959 6,25 l 1.2315789,0 q 0.056842,0.465266 0.1705265,1.085622 0.113684,0.610662 0.2463157,1.26979 0.1421053,0.649434 0.2936842,1.289176 0.1610525,0.630049 0.3126321,1.134087 Q 8.4063156,29.28433 8.5578948,28.654281 8.7094742,28.014541 8.8421055,27.365105 8.9747367,26.705978 9.088421,26.085622 9.2021043,25.465266 9.2778949,25 L 10.5,25 q -0.113685,0.581583 -0.28421,1.298869 -0.161054,0.717286 -0.378948,1.512117 Q 9.628421,28.596122 9.3726322,29.420033 9.1168413,30.234249 8.8421055,31 l -1.2031581,0 z" />
  <path
     inkscape:connector-curvature="0"
     id="path4143"
     style="font-style:normal;font-variant:normal;font-weight:bold;font-stretch:normal;font-size:9.0232296px;line-height:125%;font-family:'Ubuntu Mono';-inkscape-font-specification:'Ubuntu Mono, Bold';text-align:start;letter-spacing:0px;word-spacing:0px;writing-mode:lr-tb;text-anchor:start;fill:#ffffff;fill-opacity:1;stroke:none;stroke-width:1px;stroke-linecap:butt;stroke-linejoin:miter;stroke-opacity:1"
     d="m 12.519813,25 q 0.07709,0.203554 0.187225,0.523425 0.121138,0.31987 0.253304,0.688207 0.132159,0.368336 0.264316,0.746365 0.132159,0.378028 0.253306,0.697899 0.132158,-0.358642 0.275329,-0.736671 0.143173,-0.387723 0.275331,-0.736672 0.132159,-0.358644 0.24229,-0.668821 Q 14.381039,25.203554 14.469153,25 l 1.12335,0 q 0.07709,0.785137 0.143172,1.531502 0.07709,0.746365 0.121138,1.483039 0.05508,0.726978 0.08811,1.473342 Q 15.977963,30.224556 16,31 l -1.244495,0 0.06608,-4.662359 -0.837006,2.53958 -0.991188,0 L 12.18942,26.337641 12.244495,31 11,31 q 0.03304,-0.736671 0.06607,-1.531502 0.04405,-0.794831 0.08811,-1.579968 0.04405,-0.785138 0.09912,-1.52181 Q 11.319387,25.630049 11.396484,25 l 1.123349,0 z" />
  <path
     inkscape:connector-curvature="0"
     id="path4145"
     style="font-style:normal;font-variant:normal;font-weight:bold;font-stretch:normal;font-size:9.0232296px;line-height:125%;font-family:'Ubuntu Mono';-inkscape-font-specification:'Ubuntu Mono, Bold';text-align:start;letter-spacing:0px;word-spacing:0px;writing-mode:lr-tb;text-anchor:start;fill:#ffffff;fill-opacity:1;stroke:none;stroke-width:1px;stroke-linecap:butt;stroke-linejoin:miter;stroke-opacity:1"
     d="m 18.174224,29.977915 q 0.04774,0.0094 0.105017,0.0094 0.05728,0 0.105005,0 0.400956,0 0.668259,-0.151419 0.276849,-0.15142 0.43914,-0.416404 0.171839,-0.264985 0.238665,-0.624606 0.07638,-0.369085 0.07638,-0.804417 0,-0.378548 -0.05728,-0.73817 -0.05728,-0.359622 -0.200478,-0.634069 -0.143198,-0.274448 -0.391408,-0.435332 -0.248209,-0.170346 -0.639619,-0.170346 -0.07638,0 -0.171837,0.0094 -0.09546,0 -0.171838,0.01893 l 0,3.936908 z M 21,27.990534 q 0,0.81388 -0.210024,1.391167 -0.200477,0.567824 -0.563246,0.927444 -0.362768,0.359622 -0.868735,0.529969 -0.496419,0.160883 -1.097852,0.160883 -0.315035,0 -0.620526,-0.03785 Q 17.343675,30.933757 17,30.858052 l 0,-5.716088 q 0.400955,-0.08517 0.754177,-0.113565 0.353222,-0.02839 0.65871,-0.02839 0.58234,0 1.059666,0.170347 0.486874,0.170347 0.821003,0.539432 0.334129,0.359621 0.515513,0.927445 Q 21,27.195593 21,27.990545 Z" />
  <path
     inkscape:connector-curvature="0"
     id="path4147"
     style="font-style:normal;font-variant:normal;font-weight:bold;font-stretch:normal;font-size:9.0232296px;line-height:125%;font-family:'Ubuntu Mono';-inkscape-font-specification:'Ubuntu Mono, Bold';text-align:start;letter-spacing:0px;word-spacing:0px;writing-mode:lr-tb;text-anchor:start;fill:#ffffff;fill-opacity:1;stroke:none;stroke-width:1px;stroke-linecap:butt;stroke-linejoin:miter;stroke-opacity:1"
     d="m 24.747748,31 q -0.0991,-0.339257 -0.288289,-0.726979 -0.18018,-0.397415 -0.405405,-0.765751 -0.225226,-0.378029 -0.477477,-0.6979 -0.243244,-0.329564 -0.468469,-0.552504 L 23.108108,31 22,31 l 0,-6 1.108108,0 0,2.491115 q 0.198198,-0.271406 0.414414,-0.600969 0.216217,-0.329564 0.405406,-0.659129 0.198198,-0.329564 0.36036,-0.649434 Q 24.450451,25.261712 24.558559,25 l 1.252252,0 q -0.126126,0.261712 -0.306306,0.600969 -0.171171,0.329564 -0.396397,0.6979 -0.225226,0.358643 -0.486487,0.736672 -0.252251,0.378029 -0.531531,0.72698 0.27928,0.290791 0.567567,0.66882 0.288289,0.378029 0.54054,0.814217 0.261263,0.426494 0.468469,0.882068 Q 25.873873,30.573506 26,31 l -1.252252,0 z" />
</svg>

<svg xmlns="http://www.w3.org/2000/svg" viewBox="0 0 32 32">
 <path d="m 5.336 0 c -0.687 0 -1.336 0.676 -1.336 1.394 l 0 29.21 c 0 0.676 0.687 1.394 1.336 1.394 l 21.327 0 c 0.648 0 1.336 -0.717 1.336 -1.394 l 0.001 -21.606 -9 -9 z" style="fill:#f05617;fill-opacity:1"/>
 <path d="m 21 9 7 7 0 -7 z" style="fill:#000;fill-opacity:0.196"/>
 <path d="m 19 0 8.992 9 -7.613 0 c -0.673 0 -1.378 -0.713 -1.378 -1.386 z" style="fill:#fff;fill-opacity:0.392"/>
 <path d="m 4 24 0 6.668 c 0 0.648 0.688 1.332 1.332 1.332 l 21.336 0 c 0.645 0 1.332 -0.684 1.332 -1.332 l 0 -6.668 z" style="fill:#000;fill-opacity:0.196"/>
 <path d="m 15.5 9.158 -2 8.579 l -1.224 -3.737 -2.276 0 l 0 1 1.644 0 1.957 5.994 0.229 0.006 1.98 -8.588 1.578 5.193 c 0.422 -1.607 0.85 -3.215 1.274 -4.822 0.938 2.165 -0.018 0.042 0.938 2.217 l 2.4 0 0 -1 -1.739 0 -1.6 -5 c -0.424 1.596 -0.851 3.191 -1.275 4.784 z" style="fill:#fff;fill-opacity:1;stroke:none;fill-rule:nonzero"/>
 <path d="m 7.639 31 q -0.227 -0.669 -0.483 -1.512 -0.256 -0.843 -0.483 -1.677 -0.227 -0.843 -0.407 -1.59 -0.18 -0.746 -0.265 -1.221 l 1.232 0 q 0.057 0.465 0.171 1.086 0.114 0.611 0.246 1.27 0.142 0.649 0.294 1.289 0.161 0.63 0.313 1.134 q 0.152 -0.494 0.303 -1.124 0.152 -0.64 0.284 -1.289 0.133 -0.659 0.246 -1.279 0.114 -0.62 0.189 -1.086 l 1.222 0 q -0.114 0.582 -0.284 1.299 -0.161 0.717 -0.379 1.512 q -0.208 0.785 -0.464 1.609 -0.256 0.814 -0.531 1.58 l -1.203 0 z" style="fill:#fff;fill-opacity:1;stroke:none"/>
 <path d="m 12.52 25 q 0.077 0.204 0.187 0.523 0.121 0.32 0.253 0.688 0.132 0.368 0.264 0.746 0.132 0.378 0.253 0.698 0.132 -0.359 0.275 -0.737 0.143 -0.388 0.275 -0.737 0.132 -0.359 0.242 -0.669 q 0.11 -0.31 0.198 -0.514 l 1.123 0 q 0.077 0.785 0.143 1.532 0.077 0.746 0.121 1.483 0.055 0.727 0.088 1.473 q 0.033 0.737 0.055 1.512 l -1.244 0 0.066 -4.662 -0.837 2.54 -0.991 0 l -0.804 -2.54 0.055 4.662 -1.244 0 q 0.033 -0.737 0.066 -1.532 0.044 -0.795 0.088 -1.58 0.044 -0.785 0.099 -1.522 q 0.066 -0.737 0.143 -1.367 l 1.123 0 z" style="fill:#fff;fill-opacity:1;stroke:none"/>
 <path d="m 18.17 29.978 q 0.048 0.009 0.105 0.009 0.057 0 0.105 0 0.401 0 0.668 -0.151 0.277 -0.151 0.439 -0.416 0.172 -0.265 0.239 -0.625 0.076 -0.369 0.076 -0.804 0 -0.379 -0.057 -0.738 -0.057 -0.36 -0.2 -0.634 -0.143 -0.274 -0.391 -0.435 -0.248 -0.17 -0.64 -0.17 -0.076 0 -0.172 0.009 -0.095 0 -0.172 0.019 l 0 3.937 z m 2.826 -1.987 q 0 0.814 -0.21 1.391 -0.2 0.568 -0.563 0.927 -0.363 0.36 -0.869 0.53 -0.496 0.161 -1.098 0.161 -0.315 0 -0.621 -0.038 q -0.296 -0.028 -0.64 -0.104 l 0 -5.716 q 0.401 -0.085 0.754 -0.114 0.353 -0.028 0.659 -0.028 0.582 0 1.06 0.17 0.487 0.17 0.821 0.539 0.334 0.36 0.516 0.927 q 0.191 0.558 0.191 1.353" style="fill:#fff;fill-opacity:1;stroke:none"/>
 <path d="m 24.748 31 q -0.099 -0.339 -0.288 -0.727 -0.18 -0.397 -0.405 -0.766 -0.225 -0.378 -0.477 -0.698 -0.243 -0.33 -0.468 -0.553 l 0 2.743 -1.108 0 l 0 -6 1.108 0 0 2.491 q 0.198 -0.271 0.414 -0.601 0.216 -0.33 0.405 -0.659 0.198 -0.33 0.36 -0.649 q 0.162 -0.32 0.27 -0.582 l 1.252 0 q -0.126 0.262 -0.306 0.601 -0.171 0.33 -0.396 0.698 -0.225 0.359 -0.486 0.737 -0.252 0.378 -0.532 0.727 0.279 0.291 0.568 0.669 0.288 0.378 0.541 0.814 0.261 0.426 0.468 0.882 q 0.207 0.446 0.333 0.872 l -1.252 0 z" style="fill:#fff;fill-opacity:1;stroke:none"/>
</svg>
